src/assets/icons/tab-bar/contact-tracing-on.svg

<?xml version="1.0" encoding="UTF-8"?>
<svg width="32px" height="24px" viewBox="0 0 32 24" version="1.1" xmlns="http://www.w3.org/2000/svg" xmlns:xlink="http://www.w3.org/1999/xlink">
    <title>tab-contact-tracing-on</title>
    <g id="tab-contact-tracing-on" stroke="none" stroke-width="1" fill="none" fill-rule="evenodd">
        <path d="M18,17.9852008 C18,19.0897703 17.1045695,19.9852008 16,19.9852008 C14.8954305,19.9852008 14,19.0897703 14,17.9852008 L14,17.9852008 Z M12.146376,5.84223106 C13.4696822,4.27361419 15.6793387,3.58728234 17.6290049,4.25383113 C19.6508809,4.94506692 21.0069927,6.84844146 21,8.98520082 L21,8.98520082 L21,11.9852008 C21.0416528,13.1553166 21.588899,14.2498091 22.5,14.9852008 L22.5,14.9852008 L23,14.9852008 C23.5329418,14.9788682 23.9756398,15.3947926 24.0025237,15.9270936 C24.0294076,16.4593946 23.6241414,16.9754161 23,16.9754161 L23,16.9754161 L22.998,16.974 L22.9742857,16.9852008 L9,16.9852008 C8.44771525,16.9852008 8,16.5374856 8,15.9852008 C8,15.4329161 8.44771525,14.9852008 9,14.9852008 L9,14.9852008 L9.5,14.9852008 C10.411101,14.2498091 10.9583472,13.1553166 11,11.9852008 L11,11.9852008 L11,9.10620082 C11,7.96848359 11.3804962,6.78455428 12.0030478,6.02012872 L12.0030478,6.02012872 Z" id="Combined-Shape" fill="#B2B2B2" fill-rule="nonzero"></path>
    </g>
</svg>

<svg width="32" height="24" xmlns="http://www.w3.org/2000/svg"><path d="M18 17.985a2 2 0 11-4 0zM12.146 5.842c1.324-1.568 3.533-2.255 5.483-1.588A4.983 4.983 0 0121 8.985v3a4.04 4.04 0 001.5 3h.5a.992.992 0 011.003.942A.993.993 0 0123 16.975l-.002-.001-.024.011H9a1 1 0 110-2h.5a4.04 4.04 0 001.5-3V9.106c0-1.138.38-2.321 1.003-3.086z" fill="#B2B2B2" fill-rule="nonzero"/></svg>
